flaticon/gastronomy/garlic.svg

<svg xmlns="http://www.w3.org/2000/svg" width="32" height="32" viewBox="0 0 24 24">
    <path d="M 18.984375 8.339844 C 18.578125 8.042969 18.199219 7.773438 17.835938 7.515625 C 16.40625 6.503906 15.371094 5.769531 14.429688 4.363281 C 14.195312 3.628906 13.96875 2.816406 13.707031 1.867188 L 13.1875 0 L 11.765625 0.679688 L 11.832031 0.992188 C 11.835938 1.011719 11.941406 1.53125 12.039062 2.367188 C 11.785156 2.925781 11.566406 3.429688 11.375 3.878906 C 11.0625 4.605469 10.804688 5.203125 10.511719 5.734375 C 9.910156 6.125 9.242188 6.46875 8.53125 6.832031 C 7.636719 7.289062 6.710938 7.761719 5.933594 8.335938 C 2.898438 10.429688 1.039062 13.441406 1.199219 16.011719 C 1.191406 16.339844 1.210938 18.535156 2.710938 20.148438 C 3.75 21.269531 5.242188 21.839844 7.140625 21.839844 C 7.464844 21.839844 7.792969 21.796875 8.140625 21.714844 C 8.492188 21.792969 8.863281 21.839844 9.253906 21.839844 C 9.269531 21.839844 9.285156 21.839844 9.296875 21.839844 C 9.285156 21.890625 9.285156 21.941406 9.292969 21.992188 C 9.324219 22.195312 9.5 22.335938 9.695312 22.335938 C 9.714844 22.335938 9.738281 22.332031 9.761719 22.328125 L 11.148438 22.097656 L 10.484375 22.761719 C 10.324219 22.921875 10.324219 23.179688 10.484375 23.339844 C 10.566406 23.417969 10.667969 23.460938 10.773438 23.460938 C 10.878906 23.460938 10.984375 23.417969 11.0625 23.339844 L 11.984375 22.417969 L 11.984375 23.59375 C 11.984375 23.816406 12.164062 24 12.390625 24 C 12.617188 24 12.800781 23.816406 12.800781 23.59375 L 12.800781 22.417969 L 13.71875 23.339844 C 13.800781 23.417969 13.902344 23.460938 14.007812 23.460938 C 14.113281 23.460938 14.21875 23.417969 14.296875 23.339844 C 14.457031 23.179688 14.457031 22.921875 14.296875 22.761719 L 13.628906 22.09375 L 15.007812 22.371094 C 15.035156 22.375 15.0625 22.378906 15.085938 22.378906 C 15.277344 22.378906 15.449219 22.246094 15.488281 22.050781 C 15.5 21.988281 15.496094 21.929688 15.480469 21.871094 C 15.828125 21.851562 16.171875 21.777344 16.507812 21.648438 C 16.925781 21.765625 17.347656 21.832031 17.765625 21.839844 C 17.796875 21.839844 17.828125 21.839844 17.863281 21.839844 C 19.183594 21.839844 20.28125 21.386719 21.121094 20.496094 C 22.625 18.898438 22.78125 16.433594 22.792969 16.027344 L 22.796875 16.027344 C 22.886719 14.574219 22.707031 10.910156 18.984375 8.339844 Z M 13.675781 4.675781 C 13.675781 4.683594 13.679688 4.6875 13.679688 4.691406 C 13.714844 4.800781 13.75 4.910156 13.789062 5.015625 C 13.792969 5.027344 13.796875 5.042969 13.800781 5.054688 C 13.859375 5.21875 13.917969 5.382812 13.976562 5.542969 C 14.003906 5.617188 14.035156 5.691406 14.0625 5.761719 C 14.085938 5.824219 14.109375 5.886719 14.136719 5.945312 C 14.175781 6.042969 14.214844 6.136719 14.257812 6.230469 C 14.285156 6.292969 14.3125 6.355469 14.339844 6.417969 C 14.382812 6.511719 14.425781 6.601562 14.472656 6.695312 C 14.5 6.753906 14.53125 6.8125 14.558594 6.871094 C 14.59375 6.941406 14.632812 7.007812 14.667969 7.078125 C 14.703125 7.140625 14.734375 7.199219 14.769531 7.261719 C 14.828125 7.367188 14.890625 7.476562 14.957031 7.582031 C 15 7.652344 15.042969 7.71875 15.089844 7.789062 C 15.121094 7.84375 15.15625 7.898438 15.195312 7.953125 C 15.242188 8.023438 15.289062 8.09375 15.335938 8.160156 C 15.378906 8.21875 15.421875 8.277344 15.460938 8.335938 C 15.53125 8.433594 15.601562 8.527344 15.675781 8.625 C 15.742188 8.707031 15.804688 8.789062 15.871094 8.871094 C 15.914062 8.925781 15.960938 8.980469 16.007812 9.035156 C 16.078125 9.117188 16.148438 9.199219 16.21875 9.28125 C 16.261719 9.328125 16.300781 9.375 16.34375 9.421875 C 16.460938 9.554688 16.582031 9.683594 16.710938 9.816406 C 16.894531 9.996094 17.0625 10.179688 17.226562 10.363281 C 17.253906 10.394531 17.277344 10.425781 17.304688 10.460938 C 17.441406 10.617188 17.570312 10.777344 17.6875 10.9375 C 17.703125 10.957031 17.714844 10.976562 17.730469 10.996094 C 19.398438 13.292969 19.472656 15.78125 18.882812 17.636719 C 18.878906 17.652344 18.871094 17.667969 18.867188 17.6875 C 18.820312 17.824219 18.773438 17.957031 18.722656 18.085938 C 18.714844 18.109375 18.703125 18.128906 18.695312 18.152344 C 18.648438 18.261719 18.601562 18.371094 18.550781 18.476562 C 18.519531 18.539062 18.488281 18.605469 18.457031 18.667969 C 18.4375 18.699219 18.421875 18.734375 18.402344 18.769531 C 18.363281 18.835938 18.328125 18.902344 18.289062 18.96875 C 18.273438 18.996094 18.257812 19.023438 18.238281 19.050781 C 18.195312 19.125 18.148438 19.199219 18.097656 19.269531 C 18.089844 19.28125 18.082031 19.296875 18.070312 19.3125 C 17.585938 20.015625 16.980469 20.554688 16.316406 20.84375 C 16.308594 20.847656 16.300781 20.851562 16.292969 20.855469 C 15.867188 21.035156 15.425781 21.105469 14.996094 21.042969 C 14.957031 21.039062 14.917969 21.039062 14.882812 21.039062 C 14.832031 21.039062 14.78125 21.042969 14.742188 21.046875 C 14.722656 21.046875 14.703125 21.050781 14.683594 21.050781 L 13.34375 21.050781 C 12.757812 21.050781 12.175781 20.859375 11.652344 20.523438 C 11.558594 20.464844 11.46875 20.402344 11.382812 20.335938 C 11.347656 20.304688 11.308594 20.277344 11.269531 20.246094 C 11.199219 20.1875 11.128906 20.125 11.0625 20.0625 C 11.003906 20.007812 10.949219 19.953125 10.898438 19.894531 C 10.847656 19.84375 10.800781 19.792969 10.753906 19.738281 C 10.667969 19.636719 10.582031 19.527344 10.503906 19.414062 C 10.492188 19.398438 10.480469 19.382812 10.46875 19.363281 C 10.375 19.226562 10.289062 19.078125 10.210938 18.929688 C 10.152344 18.816406 10.097656 18.703125 10.050781 18.582031 C 10.046875 18.578125 10.046875 18.574219 10.042969 18.566406 C 9.992188 18.441406 9.949219 18.3125 9.910156 18.183594 C 9.90625 18.167969 9.902344 18.15625 9.898438 18.140625 C 9.859375 18.007812 9.824219 17.871094 9.796875 17.734375 C 9.765625 17.566406 9.738281 17.378906 9.726562 17.179688 C 9.726562 17.152344 9.722656 17.128906 9.722656 17.101562 C 9.71875 17.035156 9.71875 16.96875 9.71875 16.902344 C 9.71875 16.828125 9.71875 16.753906 9.722656 16.675781 C 9.722656 16.640625 9.726562 16.605469 9.730469 16.570312 C 9.734375 16.492188 9.742188 16.414062 9.75 16.339844 C 9.753906 16.320312 9.753906 16.300781 9.757812 16.28125 C 9.859375 15.5 10.160156 14.707031 10.648438 13.949219 C 10.652344 13.945312 10.652344 13.945312 10.652344 13.941406 C 10.722656 13.832031 10.796875 13.722656 10.875 13.617188 C 11.019531 13.421875 11.148438 13.21875 11.273438 13.015625 C 11.292969 12.984375 11.3125 12.953125 11.328125 12.921875 C 11.449219 12.722656 11.558594 12.519531 11.660156 12.3125 C 11.675781 12.28125 11.691406 12.246094 11.707031 12.214844 C 11.816406 12 11.914062 11.777344 12.003906 11.550781 C 12.003906 11.550781 12.003906 11.550781 12.007812 11.546875 C 13.40625 8.085938 13.082031 3.90625 12.8125 1.941406 L 12.765625 1.523438 L 12.917969 2.082031 C 13.1875 3.058594 13.421875 3.902344 13.675781 4.675781 Z M 3.339844 19.632812 C 1.945312 18.164062 2.011719 16.050781 2.011719 16.03125 C 2.015625 16.015625 2.015625 15.996094 2.011719 15.976562 C 1.867188 13.71875 3.628906 10.917969 6.410156 9 C 7.144531 8.457031 8.039062 8 8.902344 7.558594 C 9.023438 7.496094 9.140625 7.4375 9.257812 7.375 C 8.9375 7.691406 8.5625 8.003906 8.113281 8.335938 C 4.386719 10.90625 4.203125 14.574219 4.296875 16.027344 C 4.3125 16.480469 4.507812 19.5 6.535156 21 C 5.179688 20.898438 4.109375 20.4375 3.339844 19.632812 Z M 7.996094 20.828125 C 7.941406 20.8125 7.886719 20.796875 7.832031 20.773438 C 7.738281 20.738281 7.644531 20.695312 7.550781 20.652344 C 7.53125 20.640625 7.511719 20.628906 7.492188 20.621094 C 7.191406 20.464844 6.917969 20.265625 6.671875 20.019531 C 5.203125 18.558594 5.136719 16.042969 5.136719 16.035156 L 5.136719 15.976562 C 5.050781 14.660156 5.21875 11.34375 8.613281 9 C 10.738281 7.429688 11.230469 6.28125 12.125 4.203125 C 12.144531 4.152344 12.164062 4.105469 12.183594 4.058594 C 12.296875 6.144531 12.191406 8.941406 11.21875 11.316406 C 11.207031 11.339844 11.199219 11.367188 11.1875 11.390625 C 11.136719 11.507812 11.085938 11.625 11.03125 11.742188 C 11 11.804688 10.96875 11.867188 10.9375 11.933594 C 10.890625 12.023438 10.847656 12.113281 10.796875 12.203125 C 10.746094 12.296875 10.695312 12.386719 10.640625 12.480469 C 10.601562 12.542969 10.566406 12.609375 10.527344 12.675781 C 10.429688 12.832031 10.324219 12.988281 10.214844 13.136719 C 10.125 13.261719 10.042969 13.386719 9.960938 13.507812 C 9.953125 13.519531 9.949219 13.53125 9.941406 13.542969 C 9.867188 13.660156 9.796875 13.773438 9.730469 13.890625 C 9.726562 13.894531 9.722656 13.902344 9.722656 13.910156 C 9.652344 14.03125 9.589844 14.152344 9.53125 14.273438 C 9.527344 14.28125 9.523438 14.285156 9.523438 14.289062 C 9.460938 14.414062 9.40625 14.535156 9.355469 14.660156 C 9.355469 14.664062 9.351562 14.671875 9.347656 14.679688 C 9.296875 14.800781 9.253906 14.921875 9.210938 15.039062 C 9.210938 15.050781 9.207031 15.0625 9.203125 15.070312 C 9.164062 15.191406 9.125 15.3125 9.09375 15.429688 C 9.089844 15.4375 9.089844 15.449219 9.085938 15.457031 C 9.054688 15.582031 9.023438 15.707031 9 15.828125 C 8.992188 15.867188 8.988281 15.90625 8.980469 15.945312 C 8.96875 16.015625 8.957031 16.082031 8.949219 16.152344 C 8.9375 16.222656 8.929688 16.296875 8.925781 16.371094 C 8.921875 16.394531 8.921875 16.417969 8.917969 16.4375 C 8.867188 17.074219 8.921875 17.703125 9.09375 18.308594 C 9.09375 18.308594 9.097656 18.3125 9.097656 18.3125 C 9.128906 18.433594 9.171875 18.558594 9.214844 18.679688 C 9.226562 18.710938 9.238281 18.742188 9.25 18.777344 C 9.285156 18.859375 9.320312 18.945312 9.359375 19.03125 C 9.382812 19.085938 9.40625 19.136719 9.433594 19.191406 C 9.445312 19.21875 9.457031 19.246094 9.46875 19.273438 C 9.492188 19.320312 9.519531 19.363281 9.546875 19.410156 C 9.566406 19.449219 9.589844 19.488281 9.609375 19.527344 C 9.671875 19.636719 9.738281 19.738281 9.804688 19.839844 C 9.820312 19.859375 9.835938 19.878906 9.851562 19.898438 C 9.910156 19.984375 9.972656 20.070312 10.039062 20.152344 C 10.0625 20.179688 10.085938 20.207031 10.109375 20.234375 C 10.175781 20.316406 10.246094 20.394531 10.316406 20.46875 C 10.332031 20.484375 10.34375 20.5 10.359375 20.515625 C 10.453125 20.613281 10.546875 20.703125 10.648438 20.789062 C 10.230469 20.9375 9.792969 21.015625 9.339844 21.023438 C 8.851562 21.03125 8.402344 20.960938 7.996094 20.828125 Z M 21.980469 16.015625 C 21.980469 16.039062 21.914062 18.558594 20.445312 20.019531 C 19.757812 20.703125 18.871094 21.035156 17.777344 21.023438 C 17.71875 21.023438 17.65625 21.019531 17.59375 21.015625 C 18.246094 20.503906 18.820312 19.785156 19.257812 18.894531 C 19.28125 18.84375 19.304688 18.789062 19.328125 18.734375 C 19.335938 18.722656 19.339844 18.707031 19.347656 18.695312 C 19.414062 18.542969 19.476562 18.390625 19.539062 18.226562 C 19.558594 18.171875 19.582031 18.113281 19.601562 18.054688 C 19.636719 17.949219 19.667969 17.84375 19.699219 17.738281 C 19.734375 17.632812 19.765625 17.527344 19.792969 17.417969 C 19.800781 17.378906 19.808594 17.339844 19.820312 17.300781 C 19.851562 17.167969 19.882812 17.039062 19.910156 16.90625 C 20.101562 15.867188 20.082031 14.820312 19.867188 13.804688 C 19.847656 13.707031 19.820312 13.609375 19.796875 13.511719 C 19.777344 13.433594 19.757812 13.355469 19.738281 13.277344 C 19.699219 13.144531 19.65625 13.007812 19.613281 12.875 C 19.605469 12.847656 19.59375 12.824219 19.585938 12.796875 C 19.429688 12.335938 19.222656 11.875 18.964844 11.417969 C 18.964844 11.414062 18.960938 11.410156 18.957031 11.402344 C 18.875 11.253906 18.785156 11.109375 18.691406 10.964844 C 18.675781 10.9375 18.660156 10.914062 18.644531 10.890625 C 18.511719 10.691406 18.375 10.496094 18.222656 10.296875 C 18.136719 10.1875 18.050781 10.082031 17.960938 9.972656 C 17.90625 9.90625 17.847656 9.839844 17.789062 9.773438 C 17.628906 9.59375 17.464844 9.417969 17.289062 9.246094 C 17.167969 9.117188 17.050781 8.988281 16.9375 8.863281 C 16.898438 8.820312 16.859375 8.773438 16.816406 8.726562 C 16.75 8.648438 16.683594 8.570312 16.617188 8.492188 C 16.570312 8.4375 16.527344 8.386719 16.484375 8.332031 C 16.429688 8.261719 16.375 8.191406 16.320312 8.125 C 16.277344 8.070312 16.234375 8.015625 16.195312 7.960938 C 16.136719 7.882812 16.082031 7.804688 16.027344 7.726562 C 15.976562 7.660156 15.929688 7.589844 15.882812 7.519531 C 15.828125 7.433594 15.769531 7.347656 15.714844 7.261719 C 15.683594 7.210938 15.652344 7.15625 15.621094 7.105469 C 15.578125 7.035156 15.539062 6.964844 15.496094 6.894531 C 15.464844 6.839844 15.4375 6.785156 15.40625 6.734375 C 15.394531 6.710938 15.382812 6.6875 15.371094 6.664062 C 15.972656 7.195312 16.632812 7.660156 17.367188 8.183594 C 17.726562 8.4375 18.101562 8.703125 18.503906 9 C 18.507812 9.003906 18.511719 9.003906 18.515625 9.007812 C 21.898438 11.339844 22.066406 14.65625 21.980469 16.015625 Z M 21.980469 16.015625"/>
</svg>

<svg xmlns="http://www.w3.org/2000/svg" width="32" height="32" viewBox="0 0 24 24">
    <path d="M18.984 8.34a99.604 99.604 0 0 0-1.148-.824c-1.43-1.012-2.465-1.746-3.406-3.153a66.977 66.977 0 0 1-.723-2.496L13.187 0l-1.421.68.066.312c.004.02.11.54.207 1.375a68.45 68.45 0 0 0-.664 1.512c-.313.726-.57 1.324-.863 1.855-.602.391-1.27.735-1.98 1.098-.895.457-1.821.93-2.598 1.504-3.036 2.094-4.895 5.105-4.735 7.676-.008.328.012 2.523 1.512 4.136C3.75 21.27 5.242 21.84 7.14 21.84c.324 0 .652-.043 1-.125.351.078.722.125 1.113.125h.043a.407.407 0 0 0 .398.496c.02 0 .043-.004.067-.008l1.386-.23-.664.664a.408.408 0 0 0 0 .578.419.419 0 0 0 .29.12c.105 0 .21-.042.289-.12l.921-.922v1.176a.41.41 0 0 0 .816 0v-1.176l.919.922a.419.419 0 0 0 .289.12.408.408 0 0 0 .29-.7l-.67-.666 1.38.277a.41.41 0 0 0 .48-.32.397.397 0 0 0-.008-.18c.348-.02.692-.094 1.028-.223.418.118.84.184 1.258.192h.097c1.32 0 2.418-.453 3.258-1.344 1.504-1.598 1.66-4.062 1.672-4.469h.004c.09-1.453-.09-5.117-3.813-7.687zm-5.308-3.664c0 .008.004.011.004.015.035.11.07.22.11.325l.01.039.177.488c.027.074.058.148.085.219.024.062.047.125.075.183.039.098.078.192.12.285l.083.188c.043.094.086.184.133.277.027.059.058.117.086.176.035.07.074.137.109.207l.102.184a6.812 6.812 0 0 0 .32.527c.031.055.066.11.105.164l.14.207a13.79 13.79 0 0 0 .34.465c.067.082.13.164.196.246.043.055.09.11.137.164l.21.246c.044.047.083.094.126.14.117.134.238.263.367.395.184.18.352.364.516.547.027.032.05.063.078.098.136.156.265.316.383.476l.042.06c1.668 2.296 1.743 4.784 1.153 6.64-.004.015-.012.031-.016.05-.047.137-.094.27-.144.399-.008.023-.02.043-.028.066-.047.11-.093.22-.144.325l-.094.191c-.02.031-.035.066-.055.102-.039.066-.074.132-.113.199a.934.934 0 0 1-.05.082c-.044.074-.09.148-.141.219-.008.011-.016.027-.028.043-.484.703-1.09 1.242-1.754 1.53a2.427 2.427 0 0 1-1.32.2c-.039-.004-.078-.004-.113-.004-.051 0-.102.004-.14.008-.02 0-.04.004-.06.004h-1.34c-.585 0-1.167-.192-1.69-.528a3.307 3.307 0 0 1-.27-.187c-.035-.031-.074-.059-.113-.09a4.63 4.63 0 0 1-.207-.183 2.21 2.21 0 0 1-.165-.168 2.736 2.736 0 0 1-.144-.157 4.19 4.19 0 0 1-.543-.808 3.513 3.513 0 0 1-.16-.348c-.004-.004-.004-.008-.008-.016a4.433 4.433 0 0 1-.133-.382l-.012-.043a4.748 4.748 0 0 1-.101-.407 4.47 4.47 0 0 1-.07-.554c0-.028-.004-.051-.004-.078-.004-.067-.004-.133-.004-.2 0-.074 0-.148.004-.226 0-.035.004-.07.007-.106.004-.078.012-.156.02-.23.004-.02.004-.04.008-.059.101-.781.402-1.574.89-2.332.004-.004.004-.004.004-.008.07-.109.145-.218.223-.324a8.43 8.43 0 0 0 .398-.601c.02-.032.04-.063.055-.094.121-.2.23-.402.332-.61.016-.03.031-.066.047-.097.11-.215.207-.438.297-.664l.004-.004c1.398-3.461 1.074-7.64.805-9.606l-.047-.418.152.559c.27.977.504 1.82.758 2.594zM3.34 19.633c-1.395-1.469-1.328-3.582-1.328-3.602a.129.129 0 0 0 0-.054C1.867 13.719 3.629 10.918 6.41 9c.735-.543 1.63-1 2.492-1.441.121-.063.239-.122.356-.184-.32.316-.695.629-1.145.96-3.726 2.571-3.91 6.24-3.816 7.692.016.453.21 3.473 2.238 4.973-1.355-.102-2.426-.563-3.195-1.367zm4.656 1.195a1.346 1.346 0 0 1-.164-.055c-.094-.035-.187-.078-.281-.12a3.311 3.311 0 0 1-.879-.633c-1.469-1.461-1.535-3.977-1.535-3.985v-.058C5.05 14.66 5.219 11.344 8.613 9c2.125-1.57 2.617-2.719 3.512-4.797l.059-.144c.113 2.086.007 4.882-.965 7.257-.012.024-.02.051-.031.075-.051.117-.102.234-.157.351l-.094.192c-.046.09-.09.18-.14.27-.05.093-.102.183-.156.276-.04.063-.075.13-.114.196a7.343 7.343 0 0 1-.312.46c-.09.126-.172.25-.254.372l-.02.035c-.074.117-.144.23-.21.348a.03.03 0 0 0-.008.02c-.07.12-.133.241-.192.362-.004.008-.008.012-.008.016a5.182 5.182 0 0 0-.168.371c0 .004-.003.012-.007.02-.051.12-.094.242-.137.36a.074.074 0 0 1-.008.03c-.039.121-.078.242-.11.36-.003.008-.003.02-.007.027-.031.125-.063.25-.086.371-.008.04-.012.078-.02.117-.011.07-.023.137-.03.207-.012.07-.02.145-.024.22-.004.023-.004.046-.008.066-.05.636.004 1.265.176 1.87l.004.005c.03.12.074.246.117.367.012.03.023.062.035.097.035.082.07.168.11.254.023.055.046.106.074.16l.035.082c.023.047.05.09.078.137.02.04.043.078.062.117.063.11.13.211.196.313.015.02.03.039.047.058.058.086.12.172.187.254l.07.082c.067.082.137.16.207.235.016.015.028.031.043.047.094.097.188.187.29.273a4.1 4.1 0 0 1-1.31.234 4.095 4.095 0 0 1-1.343-.195zm13.984-4.812c0 .023-.066 2.543-1.535 4.004-.687.683-1.574 1.015-2.668 1.003-.058 0-.12-.003-.183-.007.652-.512 1.226-1.23 1.664-2.121a6.49 6.49 0 0 0 .07-.16c.008-.012.012-.028.02-.04.066-.152.129-.304.191-.468.02-.055.043-.114.063-.172.035-.106.066-.211.097-.317a4.322 4.322 0 0 0 .121-.437c.032-.133.063-.262.09-.395a7.965 7.965 0 0 0-.043-3.101c-.02-.098-.047-.196-.07-.293l-.059-.235c-.039-.132-.082-.27-.125-.402-.008-.027-.02-.05-.027-.078a8.107 8.107 0 0 0-.621-1.379c0-.004-.004-.008-.008-.016a7.252 7.252 0 0 0-.312-.511c-.133-.2-.27-.395-.422-.594-.086-.11-.172-.215-.262-.324a10.534 10.534 0 0 0-.672-.727 28.934 28.934 0 0 1-.352-.383c-.039-.043-.078-.09-.12-.136l-.2-.235a4.798 4.798 0 0 1-.133-.16c-.054-.07-.109-.14-.164-.207-.043-.055-.086-.11-.125-.164a8.73 8.73 0 0 1-.168-.234c-.05-.067-.097-.137-.144-.207l-.168-.258-.094-.157c-.043-.07-.082-.14-.125-.21-.031-.055-.059-.11-.09-.16l-.035-.07c.602.53 1.262.995 1.996 1.519.36.254.735.52 1.137.816.004.004.008.004.012.008 3.382 2.332 3.55 5.648 3.464 7.008zm0 0"/>
</svg>
